src/general/components/img/cliqCash.svg

<svg height="25" viewBox="0 0 18 25" width="18" xmlns="http://www.w3.org/2000/svg"><g fill="none" fill-rule="evenodd" transform="translate(0 1)"><rect height="17.467354" rx="1.18" stroke="#fff" stroke-width="1.77" width="16.23" x=".885" y="5.647646"/><path d="m9.07102884 11.6315353c-.21954369-.5983403-.81188119-1.0174274-1.4911752-1.0174274h-1.57985364v-1.0141079h6v1.0141079h-2.31683168c.18854929.2414938.33060698.5136929.42014638.8049792.037882.1236515.1472234.2124482.2806715.2124482h1.6160138v1.0141079h-1.6151528c-.1343091 0-.2445114.0896265-.2823935.213278-.32458026 1.0589211-1.34050794 1.8182572-2.52260006 1.8182572h-.2505381l2.17821782 2.6995851-.83082221.6232365-2.61386139-3.2390041c-.04046491-.0514523-.06284976-.1128631-.06284976-.1767635v-.9211619h1.57985364c.67929401 0 1.27163151-.4190871 1.4911752-1.0174273h-3.07102884v-1.0141079z" fill="#fff"/><g stroke="#fff" stroke-width="1.77"><path d="m5.43888159 4.77941682v-2.33431884c.35093911-.71959342.67310888-1.20083184.96650931-1.44371526 1.28880872-1.0669046 2.3871738-.96312787 2.62496073-.96312787"/><path d="m8.96062072 4.77941682v-2.33431884c.35093911-.71959342.67310888-1.20083184.96650931-1.44371526 1.28880867-1.0669046 2.38717377-.96312787 2.62496077-.96312787" transform="matrix(-1 0 0 1 21.512712 0)"/></g></g></svg>

<?xml version="1.0" encoding="UTF-8"?>
<svg width="18px" height="25px" viewBox="0 0 18 25" version="1.1" xmlns="http://www.w3.org/2000/svg" xmlns:xlink="http://www.w3.org/1999/xlink">
    <!-- Generator: Sketch 48.2 (47327) - http://www.bohemiancoding.com/sketch -->
    <title>Group 11</title>
    <desc>Created with Sketch.</desc>
    <defs></defs>
    <g id="My-account-landing-Copy" stroke="none" stroke-width="1" fill="none" fill-rule="evenodd" transform="translate(-172.000000, -236.000000)">
        <g id="Group-11" transform="translate(172.000000, 237.000000)">
            <rect id="Rectangle-8" stroke="#FFFFFF" stroke-width="1.76999992" x="0.884999961" y="5.64764588" width="16.2300001" height="17.4673542" rx="1.17999995"></rect>
            <path d="M9.07102884,11.6315353 C8.85148515,11.033195 8.25914765,10.6141079 7.57985364,10.6141079 L6,10.6141079 L6,9.6 L12,9.6 L12,10.6141079 L9.68316832,10.6141079 C9.87171761,10.8556017 10.0137753,11.1278008 10.1033147,11.4190871 C10.1411967,11.5427386 10.2505381,11.6315353 10.3839862,11.6315353 L12,11.6315353 L12,12.6456432 L10.3848472,12.6456432 C10.2505381,12.6456432 10.1403358,12.7352697 10.1024537,12.8589212 C9.77787344,13.9178423 8.76194576,14.6771784 7.57985364,14.6771784 L7.32931554,14.6771784 L9.50753336,17.3767635 L8.67671115,18 L6.06284976,14.7609959 C6.02238485,14.7095436 6,14.6481328 6,14.5842324 L6,13.6630705 L7.57985364,13.6630705 C8.25914765,13.6630705 8.85148515,13.2439834 9.07102884,12.6456432 L6,12.6456432 L6,11.6315353 L9.07102884,11.6315353 Z" id="Fill-7" fill="#FFFFFF"></path>
            <path d="M5.43888159,4.77941682 L5.43888159,2.44509798 C5.7898207,1.72550456 6.11199047,1.24426614 6.4053909,1.00138272 C7.69419962,-0.065521877 8.7925647,0.0382548491 9.03035163,0.0382548491" id="Path-2" stroke="#FFFFFF" stroke-width="1.76999992"></path>
            <path d="M8.96062072,4.77941682 L8.96062072,2.44509798 C9.31155983,1.72550456 9.6337296,1.24426614 9.92713003,1.00138272 C11.2159387,-0.065521877 12.3143038,0.0382548491 12.5520908,0.0382548491" id="Path-2" stroke="#FFFFFF" stroke-width="1.76999992" transform="translate(10.756356, 2.407460) scale(-1, 1) translate(-10.756356, -2.407460) "></path>
        </g>
    </g>
</svg>
